Papirus-Dark/16x16/actions/boundingbox_top_right.svg

<?xml version="1.0" encoding="UTF-8" standalone="no"?>
<svg xmlns:osb="http://www.openswatchbook.org/uri/2009/osb" xmlns:dc="http://purl.org/dc/elements/1.1/" xmlns:cc="http://creativecommons.org/ns#" xmlns:rdf="http://www.w3.org/1999/02/22-rdf-syntax-ns#" xmlns:svg="http://www.w3.org/2000/svg" xmlns="http://www.w3.org/2000/svg" width="16" height="16" viewBox="0 0 16 16" id="svg6394" version="1.1">
    <defs id="defs6396">
        <linearGradient id="linearGradient19282" osb:paint="solid" gradientTransform="matrix(-0.40801424,2.7359005,1.4465395,0.18903615,2588.4859,828.26016)">
            <stop style="stop-color:#ffffff;stop-opacity:1;" offset="0" id="stop19284"/>
        </linearGradient>
        <linearGradient id="linearGradient19282-3" osb:paint="solid" gradientTransform="matrix(-2.7359006,0.40801425,-0.18903616,-1.4465395,-804.26018,-2564.486)">
            <stop style="stop-color:#ffffff;stop-opacity:1;" offset="0" id="stop19284-6"/>
        </linearGradient>
        <linearGradient gradientTransform="matrix(-2.73658,0.4081035,-0.1890831,-1.446856,-1254.4599,-3933.7766)" osb:paint="solid" id="linearGradient19282-36">
            <stop id="stop19284-7" offset="0" style="stop-color:#666666;stop-opacity:1;"/>
        </linearGradient>
    </defs>
    <metadata id="metadata6399">
        <rdf:RDF>
            <cc:Work rdf:about="">
                <dc:format>
                    image/svg+xml
                </dc:format>
                <dc:type rdf:resource="http://purl.org/dc/dcmitype/StillImage"/>
                <dc:title/>
            </cc:Work>
        </rdf:RDF>
    </metadata>
    <path style="opacity:0.72;fill:#ffffff;fill-opacity:1;stroke:none;stroke-width:2;stroke-linecap:round;stroke-linejoin:round;stroke-miterlimit:4;stroke-dasharray:none;stroke-opacity:1" d="m 12,16 0,-6.105469 c 0.0021,-4.18e-4 0.0038,-0.0015 0.0059,-0.002 0.555973,-0.1148664 1.088323,-0.3235792 1.574219,-0.617187 0.01198,-0.0072 0.0252,-0.01221 0.03711,-0.01953 0.223538,-0.1386592 0.435785,-0.2947427 0.634765,-0.466797 0.02251,-0.01932 0.04425,-0.03889 0.06641,-0.05859 0.197572,-0.1740568 0.381085,-0.3634482 0.548828,-0.566407 0.0041,-0.0051 0.0076,-0.01056 0.01172,-0.01562 0.165995,-0.2046717 0.31555,-0.4221462 0.447266,-0.650391 0.0088,-0.01523 0.01868,-0.0296 0.02734,-0.04492 0.126083,-0.2256307 0.234481,-0.4606982 0.324218,-0.703089 0.01249,-0.03327 0.02531,-0.06603 0.03711,-0.09961 0.08421,-0.2387936 0.150151,-0.4836386 0.197266,-0.732422 0.008,-0.04263 0.01264,-0.08594 0.01953,-0.128907 C 15.975255,5.528262 15.998114,5.264414 16,5 15.99912,4.855226 15.9919,4.710558 15.97852,4.566406 15.97102,4.479496 15.95913,4.394179 15.94727,4.308594 15.93727,4.232164 15.92559,4.155969 15.91211,4.080078 15.90211,4.026528 15.88862,3.974809 15.87695,3.921875 15.81578,3.642989 15.730834,3.369856 15.623044,3.105469 15.604974,3.061459 15.583724,3.019929 15.564454,2.976562 15.452989,2.721149 15.320365,2.475503 15.16797,2.242188 15.14549,2.208298 15.11898,2.177838 15.0957,2.144528 14.932204,1.907796 14.74858,1.685618 14.546872,1.480466 14.532192,1.465676 14.516802,1.452106 14.501952,1.437496 14.28857,1.22563 14.056509,1.033445 13.808593,0.863277 c -0.01614,-0.01099 -0.0345,-0.0185 -0.05078,-0.0293 -0.251388,-0.167602 -0.517451,-0.312073 -0.794922,-0.43164 l -0.01563,-0.0078 c -0.0076,-0.0032 -0.01582,-0.0046 -0.02344,-0.0078 -0.286954,-0.119884 -0.584467,-0.212734 -0.888672,-0.277344 -0.01388,-0.0029 -0.0271,-0.007 -0.04102,-0.0098 -0.162141,-0.03271 -0.326728,-0.05761 -0.49414,-0.07422 C 11.333862,0.008571 11.166986,1.03e-4 11,0 c -0.289423,3.57e-4 -0.578268,0.02584 -0.863281,0.07617 -0.01385,0.0024 -0.0272,0.0053 -0.04102,0.0078 -0.2406499,0.0457 -0.4776161,0.109021 -0.7089845,0.189454 -0.044356,0.01516 -0.088997,0.02856 -0.1328126,0.04492 -0.2243782,0.08449 -0.4423889,0.18501 -0.6523439,0.300782 -0.04699,0.02576 -0.09258,0.05285 -0.138671,0.08008 -0.209551,0.121999 -0.40995,0.259079 -0.59961,0.410156 -0.02703,0.0218 -0.05155,0.046 -0.07813,0.06836 -0.177718,0.149646 -0.344789,0.311496 -0.5,0.484375 -0.02286,0.02543 -0.04796,0.04831 -0.07031,0.07422 C 7.057591,1.92095 6.913982,2.11678 6.785153,2.322255 6.755113,2.369495 6.725763,2.416475 6.697263,2.464833 6.570108,2.678911 6.459122,2.902188 6.365231,3.132801 c -0.0106,0.02635 -0.01913,0.0535 -0.0293,0.08008 C 6.236356,3.468385 6.157969,3.731645 6.101562,4 L 0,4 0,6 6.105469,6 c 5.42e-4,0.0027 0.0014,0.0052 0.002,0.0078 0.04826,0.2361761 0.113532,0.4685531 0.195312,0.695313 l 0.0039,0.01172 c 7.06e-4,0.0019 0.0012,0.0039 0.002,0.0059 0.08184,0.2201107 0.179086,0.4341823 0.291015,0.640625 0.0098,0.01831 0.01926,0.03651 0.0293,0.05469 0.101008,0.1812814 0.213205,0.3560985 0.335938,0.523437 0.01848,0.0254 0.03574,0.05114 0.05469,0.07617 0.137098,0.1825342 0.286537,0.3554648 0.447266,0.517578 0.156342,0.1546771 0.322719,0.2988706 0.498047,0.431641 0.02948,0.02262 0.0579,0.04639 0.08789,0.06836 0.362728,0.2648964 0.759496,0.4797093 1.1795949,0.638641 0.036255,0.01374 0.072716,0.02614 0.109375,0.03906 C 9.5566579,9.7883958 9.776574,9.8510436 10,9.898438 L 10,16 Z" id="path4397"/>
</svg>

<?xml version="1.0" encoding="UTF-8" standalone="no"?>
<svg id="svg6394" xmlns:rdf="http://www.w3.org/1999/02/22-rdf-syntax-ns#" xmlns="http://www.w3.org/2000/svg" xmlns:osb="http://www.openswatchbook.org/uri/2009/osb" height="16" width="16" version="1.1" xmlns:cc="http://creativecommons.org/ns#" viewBox="0 0 16 16" xmlns:dc="http://purl.org/dc/elements/1.1/">
 <metadata id="metadata6399">
  <rdf:RDF>
   <cc:Work rdf:about="">
    <dc:format>image/svg+xml</dc:format>
    <dc:type rdf:resource="http://purl.org/dc/dcmitype/StillImage"/>
    <dc:title/>
   </cc:Work>
  </rdf:RDF>
 </metadata>
 <path id="path4397" opacity="1" fill="#d3dae3" d="m12 16v-6.1055c0.0021-0.000418 0.0038-0.0015 0.0059-0.002 0.55597-0.11487 1.0883-0.32358 1.5742-0.61719 0.01198-0.0072 0.0252-0.01221 0.03711-0.01953 0.22354-0.13866 0.43578-0.29474 0.63476-0.4668 0.02251-0.01932 0.04425-0.03889 0.06641-0.05859 0.19757-0.17406 0.38108-0.36345 0.54883-0.56641 0.0041-0.0051 0.0076-0.01056 0.01172-0.01562 0.166-0.20467 0.31555-0.42215 0.44727-0.65039 0.0088-0.01523 0.01868-0.0296 0.02734-0.04492 0.12608-0.22563 0.23448-0.4607 0.32422-0.70309 0.01249-0.03327 0.02531-0.06603 0.03711-0.09961 0.08421-0.23879 0.15015-0.48364 0.19727-0.73242 0.008-0.04263 0.01264-0.08594 0.01953-0.12891 0.043-0.2608 0.066-0.5247 0.068-0.7891-0.001-0.1448-0.008-0.2894-0.021-0.4336-0.008-0.0869-0.02-0.1722-0.032-0.2578-0.01-0.0764-0.021-0.1526-0.035-0.2285-0.01-0.0536-0.023-0.1053-0.035-0.1582-0.061-0.2789-0.146-0.552-0.254-0.8164-0.018-0.044-0.039-0.0856-0.059-0.1289-0.111-0.2555-0.244-0.5011-0.396-0.7344-0.023-0.0339-0.049-0.0644-0.072-0.0977-0.164-0.2367-0.347-0.4589-0.549-0.664-0.015-0.0148-0.03-0.0284-0.045-0.043-0.213-0.2119-0.445-0.4041-0.693-0.57422-0.01614-0.01099-0.0345-0.0185-0.05078-0.0293-0.25139-0.1676-0.51745-0.31207-0.79492-0.43164l-0.01563-0.0078c-0.0076-0.0032-0.01582-0.0046-0.02344-0.0078-0.28695-0.11988-0.58447-0.21273-0.88867-0.27734-0.01388-0.0029-0.0271-0.007-0.04102-0.0098-0.16214-0.03271-0.32673-0.05761-0.49414-0.07422-0.166-0.016809-0.333-0.025277-0.5-0.02538-0.28942 0.000357-0.57827 0.02584-0.86328 0.07617-0.01385 0.0024-0.0272 0.0053-0.04102 0.0078-0.24065 0.0457-0.47762 0.10902-0.70898 0.18945-0.044356 0.01516-0.088997 0.02856-0.13281 0.04492-0.22438 0.08449-0.44239 0.18501-0.65234 0.30078-0.04699 0.02576-0.09258 0.05285-0.13867 0.08008-0.20955 0.122-0.40995 0.25908-0.59961 0.41016-0.02703 0.0218-0.05155 0.046-0.07813 0.06836-0.17772 0.14965-0.34479 0.3115-0.5 0.48438-0.02286 0.02543-0.04796 0.04831-0.07031 0.07422-0.1573 0.1846-0.3009 0.3804-0.4297 0.5859-0.0301 0.0472-0.0594 0.0942-0.0879 0.1425-0.1272 0.2141-0.2382 0.4374-0.3321 0.668-0.0106 0.02635-0.01913 0.0535-0.0293 0.08008-0.0995 0.2555-0.1779 0.5187-0.2343 0.7871h-6.1016v2h6.1055c0.000542 0.0027 0.0014 0.0052 0.002 0.0078 0.04826 0.23618 0.11353 0.46855 0.19531 0.69531l0.0039 0.01172c0.000706 0.0019 0.0012 0.0039 0.002 0.0059 0.08184 0.22011 0.17909 0.43418 0.29102 0.64062 0.0098 0.01831 0.01926 0.03651 0.0293 0.05469 0.10101 0.18128 0.2132 0.3561 0.33594 0.52344 0.01848 0.0254 0.03574 0.05114 0.05469 0.07617 0.1371 0.18253 0.28654 0.35546 0.44727 0.51758 0.15634 0.15468 0.32272 0.29887 0.49805 0.43164 0.02948 0.02262 0.0579 0.04639 0.08789 0.06836 0.36273 0.2649 0.7595 0.47971 1.1796 0.63864 0.036255 0.01374 0.072716 0.02614 0.10938 0.03906 0.2149 0.0775 0.4348 0.1401 0.6582 0.1875v6.1016z"/>
</svg>
